!!!!SEGMENT: pl-kk--kk-i-3--006-008_anonim--officium-primum-de-annuntiatione-de-bmv-sanctus.krn
!!!cenid: 15xx:585
!!!COM: Anonim
!!!COM-rismid: pe30004985
!!!CDT:
!!!CNT:
!!!OPR: Officium Primum de Annuntiatione de BMV
!!!OTL: Sanctus
!!!OMV: 008
!!!PDT:
!!!AGN:
!!!SMS-siglum: PL-Kk
!!!SMS-shelfmark: Kk.I.3
!!!SMS-shelfwork: 006-008 M
!!!SMS-variant:
!!!SMS-altvar:
!!!NIFC-rismid: 1001145493
!!!URL-scan: http://repozytorium.nifc.pl/skany/pl-kk-nut--i-3
!!!ONB-nifc: UWAGA: Discantus (s. 25r-26r, skan 0027-0028), Tenor (s. 20r-v, skan 0192-0193), Bassus (s. 22r-23r, skan 0325-0326). Następna część: Agnus Dei
**kern	**text	**kern	**text	**kern	**text
*part3	*part3	*part2	*part2	*part1	*part1
*staff3	*staff3	*staff2	*staff2	*staff1	*staff1
*I"Bassus	*	*I"Tenor	*	*I"Discantus	*
*I'B	*	*I'T	*	*I'A	*
*ICvox	*	*ICvox	*	*ICvox	*
*clefF4	*	*clefC4	*	*clefC4	*
*k[b-]	*	*k[b-]	*	*k[b-]	*
*F:	*	*F:	*	*F:	*
*M2/1	*	*M2/1	*	*M2/1	*
*met(C)	*	*met(C)	*	*met(C)	*
=1-	=1-	=1-	=1-	=1-	=1-
!LO:TX:a:t=Sanctus primi o	!	!	!	!	!
1C/	San-	1c\	SAn-	2r	.
.	.	.	.	1c\	San-
1GG/	.	1d\	.	.	.
.	.	.	.	2B-/	.
=2-	=2-	=2-	=2-	=2-	=2-
*	*	*lig	*	*	*
2AA/	.	1c\	-ctus	2c/	.
2.FF/	.	.	.	2.A/	.
.	.	1A\	.	.	.
4GG/	.	.	.	4B-/	.
2.AA/	.	.	.	2.c/	.
*	*	*Xlig	*	*	*
=3-	=3-	=3-	=3-	=3-	=3-
.	.	1F/	.	.	.
4GG/	.	.	.	4B-/	.
2FF/	.	.	.	2A/	.
2.C/	.	1G/	.	4G/	.
.	.	.	.	4F/	.
.	.	.	.	4E/	.
4BB-/	.	.	.	4D/	.
=4-	=4-	=4-	=4-	=4-	=4-
2AA/	.	1A\	.	2C/	.
!LO:SIC:v:t=custos CC	!	!	!	!	!
2FF/	.	.	.	1F/	.
!LO:LB:g=original	!	!	!	!	!
*	*	*lig	*	*	*
1C/	.	1G/	.	.	.
.	.	.	.	4E/	.
.	.	.	.	4D/	.
=5-	=5-	=5-	=5-	=5-	=5-
1C/	.	1E/	.	1E/	.
*	*	*Xlig	*	*	*
!	!	!	!	!LO:SIC:v:t=custos F	!
1FFl/;	-ctus	1F/	.	1F/;	ctus
!	!	!	!	!LO:LB:g=original	!
=6||-	=6||-	=6||-	=6||-	=6||-	=6||-
*	*	*	*	*clefC3	*
2.BB-/	San-	1B-\	San-	1f\	San-
4C/	.	.	.	.	.
*	*	*lig	*	*	*
4D/	.	1A\	.	1f\	.
4E/	.	.	.	.	.
*2\right	*	*	*	*	*
2F\	.	.	.	.	.
=7-	=7-	=7-	=7-	=7-	=7-
2G\	.	1G/	.	2d/	.
2E\	.	.	.	2e/	.
*	*	*Xlig	*	*	*
2F\	.	1A\	-ctus	2c/	.
2D/	.	.	.	2d/	.
=8-	=8-	=8-	=8-	=8-	=8-
2E/	.	1G/	.	2B-/	.
2C/	.	.	.	2c/	.
2BB-/	.	1G/	.	2d/	.
!LO:SIC:v:t=custos DD	!	!	!	!	!
2C/	.	.	.	1e\	.
!LO:PB:g=original	!	!	!	!	!
=9-	=9-	=9-	=9-	=9-	=9-
*	*	*	*	*2\right	*
2.D/	.	1F/	.	.	.
.	.	.	.	2.f\	.
4C/	.	.	.	.	.
2.BB-/	.	0F/	.	.	.
.	.	.	.	4e\	.
.	.	.	.	2d/	.
8AA/L	.	.	.	.	.
8GG/J	.	.	.	.	.
=10-	=10-	=10-	=10-	=10-	=10-
0FF/;	-ctus	.	.	4c/	.
.	.	.	.	4B-/	.
.	.	.	.	1.A/;	-ctus
.	.	1r	.	.	.
=11||-	=11||-	=11||-	=11||-	=11||-	=11||-
*lig	*	*	*	*	*
1FF/	San-	1F/	San-	2F/	San-
!	!	!	!	!LO:SIC:v:t=custos C	!
.	.	.	.	1A/	.
!	!	!LO:SIC:v:t=custos C	!	!	!
1F\	.	1A\	.	.	.
!	!	!	!	!LO:LB:g=original	!
.	.	.	.	2.c/	.
*Xlig	*	*	*	*	*
!	!	!LO:LB:g=original	!	!	!
=12-	=12-	=12-	=12-	=12-	=12-
1E\	.	1c\	.	.	.
.	.	.	.	4B-/	.
.	.	.	.	4A/	.
.	.	.	.	4G/	.
2D/	.	1d\	.	2F/	.
1D\	.	.	.	2f\	.
=13-	=13-	=13-	=13-	=13-	=13-
.	.	1e\	.	1g\	.
2C/	.	.	.	.	.
*	*	*lig	*	*	*
1D\	.	1d\	.	2f\	.
.	.	.	.	2.d/	.
=14-	=14-	=14-	=14-	=14-	=14-
1D\	.	1B-\	.	.	.
.	.	.	.	4e/	.
.	.	.	.	2f\	.
*	*	*Xlig	*	*	*
1C/	-ctus	1c\	ctus	2e\	.
.	.	.	.	2.c/	.
=15-	=15-	=15-	=15-	=15-	=15-
2FF/	do-	1f\	do-	.	.
.	.	.	.	4B-/	.
2F\	.	.	.	2A/	ctus
*lig	*	*	*	*	*
1G\	-mi-	1d\	-(m)i-	1B-/	do-
=16-	=16-	=16-	=16-	=16-	=16-
1D\	.	1f\	-nus	2A/	-mi-
.	.	.	.	1d\	.
*Xlig	*	*	*	*	*
!LO:SIC:v:t=custos CC	!	!	!	!	!
2r	.	1e\	de-	.	.
!LO:LB:g=original	!	!	!	!	!
2C/	-nus	.	.	4c/	-nus
.	.	.	.	4B-/	.
=17-	=17-	=17-	=17-	=17-	=17-
!	!	!	!	!LO:SIC:v:t=custos D	!
1D\	de-	1f\	.	2A/	.
!	!	!	!	!LO:PB:g=original	!
.	.	.	.	1d\	de-
1AA/	.	1e\	.	.	.
.	.	.	.	2c/	.
=18-	=18-	=18-	=18-	=18-	=18-
1BB-/	.	1d\	.	2d/	.
.	.	.	.	2f\	.
1C/	.	1c\	.	2e/	.
.	.	.	.	1c\	.
=19-	=19-	=19-	=19-	=19-	=19-
1GG/	.	1d\	.	.	.
.	.	.	.	2B-/	us
2.AA/	-us	1c\	-us	2.c/	Sa-
4BB-/	.	.	.	4d/	.
=20-	=20-	=20-	=20-	=20-	=20-
*	*	*lig	*	*	*
2C/	.	1A\	Sa-	2e/	.
2.D/	sab-	.	.	2.f\	-ba-
.	.	1G/	.	.	.
4E/	.	.	.	4e\	.
2F\	.	.	.	4d/	.
.	.	.	.	4c/	.
*	*	*Xlig	*	*	*
=21-	=21-	=21-	=21-	=21-	=21-
1G\	.	1B-\	bba-	2B-/	.
.	.	.	.	2G/	.
2F\	.	1A\	.	2A/	.
2D/	.	.	.	1d\	.
=22-	=22-	=22-	=22-	=22-	=22-
1E\	.	1G/	.	.	.
!	!	!	!	!LO:SIC:v:t=custos	!
.	.	.	.	1c\	.
1F\	.	1A\	.	.	.
!	!	!	!	!LO:LB:g=original	!
.	.	.	.	1f\	.
=23-	=23-	=23-	=23-	=23-	=23-
!LO:SIC:v:t=custos CC	!	!	!	!	!
1C/	-ba-	1G/	.	.	.
.	.	.	.	4e\	.
.	.	.	.	4d\	.
!LO:LB:g=original	!	!	!	!	!
1C/	.	1G/	.	1e\	.
=24-	=24-	=24-	=24-	=24-	=24-
!	!	!LO:SIC:v:t=custos AA	!	!	!
0FFl/;	-oth	0F/	-oth	0f\;<	-oth
!	!	!LO:LB:g=original	!	!	!
=25||-	=25||-	=25||-	=25||-	=25-	=25-
1F\	Ple-	1A\	Ple-	1c\	Ple-
2BB-/	-ni	1G/	-ni	2d/	-ni
2C/	.	.	.	2e/	.
=26-	=26-	=26-	=26-	=26-	=26-
2D/	sunt	1F/,	ſ(un)t	2f\	su(n)t
1BB-/	c(a)e-	.	.	1d\	.
.	.	1G/	cae-	.	.
1C/	.	.	.	4c/	c(a)e-
.	.	.	.	4B-/	.
=27-	=27-	=27-	=27-	=27-	=27-
.	.	1A\	-li	2A/	.
2.AA/	.	.	.	2.c/	li
.	.	1A\	.	.	.
4BB-/	-li	.	.	4B-/	.
2C/	et	.	.	4A/	.
.	.	.	.	4G/	.
=28-	=28-	=28-	=28-	=28-	=28-
!	!	!	!	!LO:SIC:v:t=custos F	!
1FF/	.	1c\	et	2F/	.
!	!	!	!	!LO:LB:g=original	!
.	.	.	.	2.f\	et
1BB-/	ter-	1d\	ter-	.	.
.	.	.	.	4e\	.
.	.	.	.	1d\	.
=29-	=29-	=29-	=29-	=29-	=29-
1AA/	.	1e\	.	.	.
.	.	.	.	2c/	.
*	*	*lig	*	*	*
1D\	.	1d\	.	2d/	.
.	.	.	.	1f\	ter-
=30-	=30-	=30-	=30-	=30-	=30-
1D\	.	1B-\	.	.	.
.	.	.	.	2f\	-ra
*	*	*Xlig	*	*	*
!LO:SIC:v:t=custos FFF 	!	!	!	!	!
1C/	-ra	1c\	-ra	2e\	.
.	.	.	.	2.c\	glo-
!LO:LB:g=original	!	!	!	!	!
=31-	=31-	=31-	=31-	=31-	=31-
2FF/	glo-	1f\	glo-	.	.
.	.	.	.	4B-/	.
2.F\	-ri-	.	.	2.A/	-ri-
*	*	*lig	*	*	*
.	.	1f\	.	.	.
4E/	.	.	.	4G/	.
2D/	.	.	.	2F/	.
=32-	=32-	=32-	=32-	=32-	=32-
2E/	.	1d\	.	2G/	.
1F\	.	.	.	2A/	.
*	*	*Xlig	*	*	*
*	*	*lig	*	*	*
.	.	1c\	-ri-	2F/	-a
2C/	-a	.	.	2G/	.
=33-	=33-	=33-	=33-	=33-	=33-
!	!	!	!	!LO:SIC:v:t=custos F	!
2.D/	.	1A\	.	2F/	.
!	!	!	!	!LO:LB:g=original	!
.	.	.	.	2.f\	tu-
4E\	.	.	.	.	.
*	*	*Xlig	*	*	*
4F\	.	1F/	a	.	.
4G\	.	.	.	4e/	.
2A\	.	.	.	4d/	.
.	.	.	.	4c/	.
=34-	=34-	=34-	=34-	=34-	=34-
1G\	tu-	1B-\	tu-	2B-/	.
.	.	.	.	2G/	.
2F\	.	1A\	.	2A/	.
2D/	.	.	.	1d\	.
=35-	=35-	=35-	=35-	=35-	=35-
1E\	.	1G/	.	.	.
.	.	.	.	1c\	.
!LO:SIC:v:t=custos CC	!	!	!	!	!
1F\	.	1A\	.	.	.
.	.	.	.	1f\	.
!LO:LB:g=original	!	!	!	!	!
=36-	=36-	=36-	=36-	=36-	=36-
0C/	.	1G/	-a	.	.
.	.	.	.	4e\	.
.	.	.	.	4d\	.
.	.	1G/	.	1e\	.
=37-	=37-	=37-	=37-	=37-	=37-
!	!	!LO:SIC:v:t=custos F	!	!	!
0FFl/;	a	0F/	.	0f\;<	-a
!	!	!LO:LB:g=original	!	!	!
=38||-	=38||-	=38||-	=38||-	=38||-	=38||-
1F\	Osan-	1F/	Osan-	2A/	Osan-
.	.	.	.	2.c/	.
1E\	.	1c\	.	.	.
.	.	.	.	4B-/	.
.	.	.	.	4A/	.
.	.	.	.	4G/	.
=39-	=39-	=39-	=39-	=39-	=39-
!	!	!	!	!LO:SIC:v:t=custos F	!
2D/	.	1d\	.	2F	.
!	!	!	!	!LO:LB:g=original	!
1D\	.	.	.	2f\	.
.	.	1e\	.	1g\	.
2C/	.	.	.	.	.
=40-	=40-	=40-	=40-	=40-	=40-
*	*	*lig	*	*	*
1D\	.	1d\	-na	2f\	.
.	.	.	.	2.d/	-na
1D\	-na	1B-\	.	.	.
.	.	.	.	4e/	.
.	.	.	.	2f\	.
*	*	*Xlig	*	*	*
=41-	=41-	=41-	=41-	=41-	=41-
1C/	.	1c\	.	2e\	in
.	.	.	.	2.c/	.
2.FF/	.	1f\	in	.	.
.	.	.	.	4B-/	.
.	.	.	.	4A/	.
4GG/	in	.	.	4G/	.
=42-	=42-	=42-	=42-	=42-	=42-
*	*	*lig	*	*	*
2AA/	ex-	1f\	ex	2.F/	ex-
2BB-/	.	.	.	.	.
.	.	.	.	4G/	.
!LO:SIC:v:t=custos DD	!	!	!	!	!
1C/	.	1c\	.	2A/	.
.	.	.	.	2G/	.
*	*	*Xlig	*	*	*
!LO:PB:g=original	!	!	!	!	!
=43-	=43-	=43-	=43-	=43-	=43-
*	*	*lig	*	*	*
2.D/	.	1A\	.	2F/	.
.	.	.	.	2.f\	.
4E/	.	.	.	.	.
4F/	.	1F/	.	.	.
4G\	.	.	.	4e\	.
2A\	.	.	.	4d/	.
.	.	.	.	4c/	.
*	*	*Xlig	*	*	*
=44-	=44-	=44-	=44-	=44-	=44-
1G\	.	1B-\	cel-	2d/	.
.	.	.	.	2e\	.
!	!	!	!	!LO:SIC:v:t=custos D	!
2F\	.	1A\	.	1f\	.
2D/	.	.	.	.	.
!	!	!	!	!LO:PB:g=original	!
=45-	=45-	=45-	=45-	=45-	=45-
2G\	.	1G/	.	2d/	.
2E/	.	.	.	2e/	.
2F/	.	1A\	.	2c/	.
2D/	.	.	.	2d/	.
=46-	=46-	=46-	=46-	=46-	=46-
2E/	.	1G/	ſis	2B-/	.
2C/	.	.	.	2c/	.
2BB-/	.	1G/	.	2d/	.
2C/	.	.	.	2e/	.
=47-	=47-	=47-	=47-	=47-	=47-
2.D/	.	1F/	.	2.f\	-el-
!LO:SIC:v:t=custos BBB	!	!	!	!	!
4C/	.	.	.	4e/	.
!LO:LB:g=original	!	!	!	!	!
2BB-/	-cel-	1F/	.	2d/	.
4AA/	.	.	.	4c/	.
4GG/	-sis	.	.	4B-/	-sis
=48-	=48-	=48-	=48-	=48-	=48-
0FFl/;	.	0F/	.	0A/;	.
=49||-	=49||-	=49||-	=49||-	=49-	=49-
1F\	Bene-	1f\	Be-	4F/	Be-
.	.	.	.	4G/	.
.	.	.	.	4A/	.
.	.	.	.	4B-/	.
*	*	*lig	*	*	*
2F\	.	1f\	-ne	2c/	.
!	!	!	!	!LO:SIC:v:t=custos E	!
2D/	.	.	.	2d/	.
!	!	!	!	!LO:LB:g=original	!
=50-	=50-	=50-	=50-	=50-	=50-
4C/	.	1e\	.	2e\	ne-
4D/	.	.	.	.	.
4E/	.	.	.	1c\	.
4F/	.	.	.	.	.
*	*	*Xlig	*	*	*
1G\	.	1d\	.	.	.
.	.	.	.	2B-/	.
=51-	=51-	=51-	=51-	=51-	=51-
!	!	!LO:SIC:v:t=custos C	!	!	!
2F\	.	1f\	.	2A/	.
2D/	.	.	.	2F/	.
!	!	!LO:PB:g=original	!	!	!
2E/	-di-	1c\	di-	2G/	-di-
1F\	.	.	.	1A/	.
=52-	=52-	=52-	=52-	=52-	=52-
.	.	1c\	-ctus	.	.
!LO:SIC:v:t=custos DD	!	!	!	!	!
2C/	-ctus	.	.	2G/	.
!LO:LB:g=original	!	!	!	!	!
1D\	.	1d\	.	1F/	-ctus
=53-	=53-	=53-	=53-	=53-	=53-
1C/	.	1e\	.	1G/	.
2r	.	1f\	Ma-	2.F/	.
1FF/	mari-	.	.	.	.
.	.	.	.	4G/	.
=54-	=54-	=54-	=54-	=54-	=54-
.	.	1f\	-ri-	2A/	Ma-
2GG/	.	.	.	2B-/	.
*	*	*lig	*	*	*
2AA/	-e	1f\	-e	2c\	-ri-
2BB-/	.	.	.	2d\	.
=55-	=55-	=55-	=55-	=55-	=55-
2C/	.	1c\	.	2e\	.
2FF/	.	.	.	1f\	-e
*	*	*Xlig	*	*	*
*	*	*lig	*	*	*
1C/	.	1c\	.	.	.
.	.	.	.	2e\	.
=56-	=56-	=56-	=56-	=56-	=56-
2FF/	.	1A\	.	2.f\	.
2.F\	fi-	.	.	.	.
!	!	!	!	!LO:SIC:v:t=custos D	!
.	.	.	.	4e\	.
!	!	!	!	!LO:LB:g=original	!
*	*	*Xlig	*	*	*
.	.	1F/	fi-	2d/	fi-
4G\	.	.	.	.	.
2A\	-lius	.	.	2c/	.
=57-	=57-	=57-	=57-	=57-	=57-
1G\	.	1G/	-li-	1B-/	.
1F\	qui	1A\	.	2c/	.
.	.	.	.	1A/	.
=58-	=58-	=58-	=58-	=58-	=58-
1G\	.	1B-\	-us	.	.
.	.	.	.	2G/	-lius
1D\	ve-	1A\	.	1A/	.
=59-	=59-	=59-	=59-	=59-	=59-
!LO:SIC:v:t=custos FF	!	!	!	!	!
2C/	.	1c\	qui	2r	.
!LO:LB:g=original	!	!	!	!	!
2.F\	.	.	.	1A/	qui
.	.	1d\	.	.	.
4E\	.	.	.	.	.
2D/	.	.	.	2B-/	.
=60-	=60-	=60-	=60-	=60-	=60-
1C/	.	1e\	ve-	2.c/	ve-
.	.	.	.	4B-/	.
*	*	*lig	*	*	*
1D\	-nit	1d\	-nit	4A/	.
.	.	.	.	4G/	.
.	.	.	.	1F/	.
=61-	=61-	=61-	=61-	=61-	=61-
1D\	in	1B-\	.	.	.
.	.	.	.	2f\	.
*	*	*Xlig	*	*	*
2C/	no-	1c\	in	2e\	.
2.F\	.	.	.	2c/	.
=62-	=62-	=62-	=62-	=62-	=62-
.	.	1f\	no-	2d\	-nit
4E/	.	.	.	.	.
2.D/	-mi-	.	.	4c/	.
!	!	!	!	!LO:SIC:v:t=custos A	!
.	.	.	.	4B-/	.
!	!	!	!	!LO:LB:g=original	!
.	.	1f\	.	2.A/	in
4E/	.	.	.	.	.
4F\	.	.	.	.	.
4G\	.	.	.	4B-/	.
=63-	=63-	=63-	=63-	=63-	=63-
2.A\	-ne	1c\	-mi-	4c/	.
.	.	.	.	4d/	.
.	.	.	.	1e\	no-
4G\	.	.	.	.	.
!	!	!LO:SIC:v:l:s=custos FF 	!	!	!
4F\	.	1A\	-(n)e	.	.
!LO:SIC:v:t=custos DD	!	!	!	!	!
4E\	.	.	.	.	.
!LO:LB:g=original	!	!	!	!	!
2.D/	do-	.	.	2f\	.
!	!	!LO:LB:g=original	!	!	!
=64-	=64-	=64-	=64-	=64-	=64-
.	.	1F/	.	2.d/	-mi-
4C/	.	.	.	.	.
4BB-/	.	.	.	.	.
4AA/	.	.	.	4c/	.
1GG/	.	1G/	do-	4B-/	.
.	.	.	.	4A/	.
.	.	.	.	1B-/	-ne
=65-	=65-	=65-	=65-	=65-	=65-
*	*	*lig	*	*	*
1GG/	.	1B-\	-mi-	.	.
.	.	.	.	4A/	.
.	.	.	.	4G/	.
1D\	.	1A\	.	1F/	do-
*	*	*Xlig	*	*	*
=66-	=66-	=66-	=66-	=66-	=66-
1E\	.	1G/	.	1G/	.
1F\	.	1A\	.	2F/	.
.	.	.	.	1f\	.
=67-	=67-	=67-	=67-	=67-	=67-
1C/	.	1G/	-ni	.	.
.	.	.	.	4e\	.
.	.	.	.	4d\	.
1C/	mi-	1G/	.	1e\	-mi-
=68-	=68-	=68-	=68-	=68-	=68-
!LO:SIC:v:t=custos FF	!	!	!	!	!
0FFl/;	-ni	0F/	.	0f\;<;>	-ni
=69||-	=69||-	=69||-	=69||-	=69||-	=69||-
0ryy	.	1A\	O-	0ryy	.
.	.	1c\	-ſan-	.	.
=70-	=70-	=70-	=70-	=70-	=70-
0ryy	.	1d\	-na	0ryy	.
.	.	1e\	.	.	.
=71-	=71-	=71-	=71-	=71-	=71-
*	*	*lig	*	*	*
0ryy	.	1d\	.	0ryy	.
.	.	1B-\	.	.	.
*	*	*Xlig	*	*	*
=72-	=72-	=72-	=72-	=72-	=72-
0ryy	.	0c\	.	0ryy	.
==	==	==	==	==	==
*-	*-	*-	*-	*-	*-
!!!system-decoration: s1,s2,s3
!!!RDF**kern: > = above
!!!RDF**kern: < = below
!!!RDF**kern:l = terminal long
!!!ENC:Marta Opryszak
!!!END:2021-12-30
!!!ENC: Leszek Kubiak
!!!END: 2022-01-03
